!!!!SEGMENT: pl-lzu--m-15111--001-012_noskowski-zygmunt--spiewnik-dla-dzieci-op-34-12-sniezyca.krn
!!!cenid: 18xx:4709
!!!COM: Noskowski, Zygmunt
!!!COM-rismID: pe106604
!!!CDT: 1846/05/02-1909/07/23
!!!CNT: Polish
!!!GTL: Śpiewnik dla dzieci, op. 34
!!!OTL: 12. Śnieżyca
!!!OMV: 012
!!!PDT: 1890
!!!AGN: Secular; Song; Children
!!!YEC: Copyright 2022 Narodowy Instytut Fryderyka Chopina (https://polishscores.org)
!!!YEM: License CC-BY-4.0 (https://creativecommons.org/licenses/by/4.0)
!!!SMS-siglum: PL-LŹu
!!!SMS-shelfmark: M 15111
!!!SMS-variant:
!!!SMS-altvar:
!!!SMS-shelfwork: 001-012 G
!!!NIFC-rismSourceID: 1001234040
!!!NIFC-rismChildID: 1001234040
!!!NIFC-islandoraID: pl-lzu:5455
!!!URL-pdf-islandora: https://repozytorium.nifc.pl/islandora/object/pl-lzu%3A5455/datastream/PDF/view
!!!URL-scan: https://polish.musicsources.pl/pl/lokalizacje/galeria/druki-muzyczne/23228/17 @EN{Scan on Polish Music Sources Website} @PL{Skany w portalu Dziedzictwo Muzyki Polskiej w otwartym dostępie}
!!!IIIF:
!!!ONB-nifc:
!!!AIN: 1 piano 1 vox
!!!key: a
!!!OMD: Allegretto.
**kern	**kern	**dynam	**kern	**text	**text	**dynam
*part2	*part2	*part2	*part1	*part1	*part1	*part1
*staff3	*staff2	*staff2/3	*staff1	*staff1	*staff1	*staff1
*I"[Piano]	*I"[Piano]	*	*I"[Voice]	*	*	*
*I'pf	*I'pf	*	*I'V	*	*	*
*Ipiano	*Ipiano	*	*Ivox	*	*	*
*ICklav	*ICklav	*	*ICvox	*	*	*
*IGacmp	*IGacmp	*	*IGsolo	*	*	*
*>[A,B,B,C]	*>[A,B,B,C]	*>[A,B,B,C]	*>[A,B,B,C]	*>[A,B,B,C]	*>[A,B,B,C]	*>[A,B,B,C]
*>A	*>A	*>A	*>A	*>A	*>A	*>A
*clefF4	*clefG2	*	*clefG2	*	*	*
*k[]	*k[]	*	*k[]	*	*	*
*a:	*a:	*	*a:	*	*	*
*M2/4	*M2/4	*	*M2/4	*	*	*
=1	=1	=1	=1	=1	=1	=1
!	!LO:TX:a:i:t=Niezbyt prędko.	!	!	!	!	!
2r	(16d#X/LL	p	2r	.	.	.
.	16e/	.	.	.	.	.
.	16A/	.	.	.	.	.
.	16c/JJ	.	.	.	.	.
.	16d#/LL	.	.	.	.	.
.	16e/	.	.	.	.	.
.	16A/	.	.	.	.	.
.	16c/JJ	.	.	.	.	.
=2	=2	=2	=2	=2	=2	=2
2r	16d#X/LL	.	2r	.	.	.
.	16e/	.	.	.	.	.
.	16A/	.	.	.	.	.
.	16c/JJ	.	.	.	.	.
.	16d#/LL	.	.	.	.	.
.	16e/	.	.	.	.	.
.	16A/	.	.	.	.	.
.	16c/JJ)	.	.	.	.	.
=3!|:	=3!|:	=3!|:	=3!|:	=3!|:	=3!|:	=3!|:
*>B	*>B	*>B	*>B	*>B	*>B	*>B
*	*	*	*	*v:1	*v:2	*
*^	*	*	*	*	*	*
(4E/	2AA\	(16e/LL	.	8e/	Za-	A	.
.	.	16c/	.	.	.	.	.
.	.	16a/	.	8a/	-hu-	ja	.
.	.	16c/JJ	.	.	.	.	.
4D/)	.	16g#X^/LL	.	8g#X^>/	-cza-	sto-	.
.	.	16B/	.	.	.	.	.
.	.	16f/	.	8f/	-ły,	-ję	.
.	.	16B/JJ)	.	.	.	.	.
=4	=4	=4	=4	=4	=4	=4	=4
(4E/	2AA\	(16e/LL	.	8e/	za-	u	.
.	.	16c/	.	.	.	.	.
.	.	16a/	.	8a/	-świ-	o-	.
.	.	16c/JJ	.	.	.	.	.
4D/)	.	16g#X^/LL	.	8g#X^>/	-sta-	-kien-	.
.	.	16B/	.	.	.	.	.
.	.	16f/	.	8f/	-ły	-ka,	.
.	.	16B/JJ)	.	.	.	.	.
*v	*v	*	*	*	*	*	*
!!LO:PB:g=original
=5	=5	=5	=5	=5	=5	=5
*	*	*	*	*v:1	*v:2	*
[2E [2AA/	(16e/LL	.	4e/	Wi-	A	.
.	16c/	.	.	.	.	.
.	16e/	.	.	.	.	.
.	16c/JJ	.	.	.	.	.
.	16a/LL	.	4a/	-chry	ja	.
.	16c/	.	.	.	.	.
.	16e/	.	.	.	.	.
.	16c/JJ)	.	.	.	.	.
=6	=6	=6	=6	=6	=6	=6
2E] 2AA/]	(16b/LL	.	8b\	w sreb-	pa-	.
.	16d/	.	.	.	.	.
.	16cc 16g#X/	.	8cc\	-rny	-trzę	.
.	16d/JJ	.	.	.	.	.
.	16b/LL	.	4a,/	róg.	w dal,	.
.	16c/	.	.	.	.	.
.	16e/	.	.	.	.	.
.	16c/JJ)	.	.	.	.	.
=7	=7	=7	=7	=7	=7	=7
(4E\	(16gn/LL	.	8gn/	Le-	Mil-	.
.	16B/	.	.	.	.	.
.	16cc 16g/	.	8cc\	-ci,	-knie,	.
.	16B/JJ	.	.	.	.	.
4D#X\)	16bLL 16g/	.	8b\	le-	ci-	.
.	16B/	.	.	.	.	.
.	16a 16f#X/	.	8a/	-ci	-chnie	.
.	16B/JJ)	.	.	.	.	.
=8	=8	=8	=8	=8	=8	=8
(4E\	(16gLL 16e/	.	8g/	tu-	ma	.
.	16B/	.	.	.	.	.
.	16cc 16g/	.	8cc\	-man	pio-	.
.	16B/JJ	.	.	.	.	.
4C/)	16bLL 16e/	.	8b\	bia-	-sen-	.
.	16A/	.	.	.	.	.
.	16a 16e/	.	8a,/	-ły	-ka,	.
.	16A/JJ)	.	.	.	.	.
!!LO:LB:g=original
=9	=9	=9	=9	=9	=9	=9
*	*	*	*	*v:1	*v:2	*
(4BB/	(16g/LL	.	4g/	Aż	Ser-	.
.	16B/	.	.	.	.	.
.	16e/	.	.	.	.	.
.	16B/JJ	.	.	.	.	.
4GG/)	16b/LL	.	4b/	na	-ce	.
.	16B/	.	.	.	.	.
.	16e/	.	.	.	.	.
.	16B/JJ)	.	.	.	.	.
=10	=10	=10	=10	=10	=10	=10
(<8AA/L	(16a/LL	.	8a/	cha-	chwy-	.
.	16c/	.	.	.	.	.
8BB/J	16f#X 16d#X/	.	8f#X/	-ty	-ta	.
.	16A/JJ	.	.	.	.	.
4E\)	16e/LL	.	4e/	próg.	żal.	.
.	16G/	.	.	.	.	.
.	16B/	.	.	.	.	.
.	16G/JJ)	.	.	.	.	.
=11	=11	=11	=11	=11	=11	=11
(<2D\	(16fn/LL	.	8fn/	Na	Oj	.
.	16A/	.	.	.	.	.
.	16a 16c/	.	8f/	tej	nie-	.
.	16A/JJ	.	.	.	.	.
.	16g/LL	.	8g/	cha-	-je-	.
.	16c/	.	.	.	.	.
.	16a 16f/	.	8a/	-ty	-dna	.
.	16c/JJ)	.	.	.	.	.
=12	=12	=12	=12	=12	=12	=12
2GG/)	(16b/LL	.	8b\	próg	tam	.
.	16d/	.	.	.	.	.
.	16dd 16f/	.	8dd\	li-	sie-	.
.	16d/JJ	.	.	.	.	.
.	16bLL 16f/	.	8b/	-po-	-ro-	.
.	16d/	.	.	.	.	.
.	16a 16f/	.	8a/	-wy,	-ta	.
.	16B/JJ)	.	.	.	.	.
!!LO:LB:g=original
=13	=13	=13	=13	=13	=13	=13
*	*	*	*	*v:1	*v:2	*
*	*^	*	*	*	*	*
(4C/	(<16g/LL	4g\	.	4g/	Co	Na	.
.	16c/	.	.	.	.	.	.
.	16e/	.	.	.	.	.	.
.	16c/JJ	.	.	.	.	.	.
4AA/)	16cc/LL	4cc\	.	4cc\	o-	tem	.
.	16c/	.	.	.	.	.	.
.	16e/	.	.	.	.	.	.
.	16c/JJ)	.	.	.	.	.	.
=14	=14	=14	=14	=14	=14	=14	=14
(<4D\	(16f/LL	4ryy	.	8f/	-chra-	zi-	.
.	16c/	.	.	.	.	.	.
.	16f 16d/	.	.	8f/	-nia	-mnie	.
.	16c/JJ	.	.	.	.	.	.
4GG/)	16b/LL	4b\	.	4b\	nas,	drży!	.
.	16B/	.	.	.	.	.	.
.	16f 16d/	.	.	.	.	.	.
.	16B/JJ)	.	.	.	.	.	.
*	*v	*v	*	*	*	*	*
=15	=15	=15	=15	=15	=15	=15
2C/	(16e/LL	.	8e/	Co	Wiatr	.
.	16G/	.	.	.	.	.
.	16e 16B/	.	8e/	o-	chu-	.
.	16G/JJ	<	.	.	.	.
.	16f/LL	.	8f/	-tu-	-ści-	.
.	16B/	.	.	.	.	.
.	16g 16e/	.	8g/	-la	-ną	.
.	16B/JJ)	[[	.	.	.	.
=16	=16	=16	=16	=16	=16	=16
2FF/	(16a/LL	.	8a/	na-	bie-	.
.	16c/	.	.	.	.	.
.	16cc 16e/	.	8cc\	-sze	-dną	.
.	16c/JJ	.	.	.	.	.
.	16a/LL	.	8a/	gło-	mio-	.
.	16c/	.	.	.	.	.
.	16g 16e/	.	8g/	-wy	-ta,	.
.	16c/JJ)	.	.	.	.	.
!!LO:PB:g=original
=17	=17	=17	=17	=17	=17	=17
*	*	*	*	*v:1	*v:2	*
2BB/	(16f/LL	.	8f/	W złej	A	.
.	16A/	>	.	.	.	.
.	16e 16d/	.	8e/	śnie-	mróz	.
.	16A/JJ	.	.	.	.	.
.	16f/LL	.	8f/	-ży-	ści-	.
.	16A/	.	.	.	.	.
.	16g 16d/	.	8g/	-cy	-na	.
.	16A/JJ)	]	.	.	.	.
=18	=18	=18	=18	=18	=18	=18
4EE/	(16e/LL	.	2e/	czas.	łzy...	.
.	16G#X/	.	.	.	.	.
.	16d/	.	.	.	.	.
.	16G#/JJ	.	.	.	.	.
4r	16d/LL	.	.	.	.	.
.	16G#/	.	.	.	.	.
.	16d/	.	.	.	.	.
.	16G#/JJ)	.	.	.	.	.
=19:|!	=19:|!	=19:|!	=19:|!	=19:|!	=19:|!	=19:|!
*>C	*>C	*>C	*>C	*>C	*>C	*>C
*k[f#c#g#]	*k[f#c#g#]	*	*k[f#c#g#]	*	*	*
*	*	*	*	*v:3	*	*
[2E [2AA/	(16eLL 16c#/	.	8e/	O	.	mf
.	16A/	.	.	.	.	.
.	16a 16c#/	.	8a/	ty	.	.
.	16A/JJ	.	.	.	.	.
.	16g#LL 16c#/	.	8g#/	cha-	.	.
.	16A/	.	.	.	.	.
.	16f# 16c#/	.	8f#/	-to	.	.
.	16A/JJ	.	.	.	.	.
=20	=20	=20	=20	=20	=20	=20
2E] 2AA/]	16eLL 16c#/	.	8e/	na-	.	<
.	16A/	<	.	.	.	.
.	16a/	.	8a/	-sza	.	.
.	16e/JJ	.	.	.	.	.
.	16bLL 16a/	.	8b\	dro-	.	.
.	16e/	.	.	.	.	.
.	16cc# 16a/	[	8cc#,\	-ga	.	[
.	16e/JJ)	.	.	.	.	.
!!LO:LB:g=original
=21	=21	=21	=21	=21	=21	=21
*	*	*	*	*v:3	*	*
*^	*	*	*	*	*	*
(4F#/	2AA\	(16dd/LL	.	4dd\	Roz-	.	.
.	.	16d/	.	.	.	.	.
.	.	16a/	.	.	.	.	.
.	.	16d/JJ	.	.	.	.	.
4E/)	.	16b/LL	.	4b\	-szerz	.	.
.	.	16d/	.	.	.	.	.
.	.	16g#/	.	.	.	.	.
.	.	16d/JJ)	.	.	.	.	.
*v	*v	*	*	*	*	*	*
=22	=22	=22	=22	=22	=22	=22
(4AA/	(16cc#/LL	.	8cc#\	ścia-	.	.
.	16e/	.	.	.	.	.
.	16dd 16a/	.	8dd\	-ny	.	.
.	16e/JJ	.	.	.	.	.
4C#/)	16ee^/LL	.	4ee^\	swe!	.	.
.	16e/	.	.	.	.	.
.	16a/	.	.	.	.	.
.	16e/JJ)	.	.	.	.	.
=23	=23	=23	=23	=23	=23	=23
(4F#\	(16dd/LL	.	8dd\	Pójdź	.	.
.	16d/	.	.	.	.	.
.	16b 16a/	.	8b\	sie-	.	.
.	16d/JJ	.	.	.	.	.
4E\)	16cc#/LL	.	8cc#\	-ro-	.	.
.	16d/	.	.	.	.	.
.	16dd 16g#/	.	8dd\	-to,	.	.
.	16d/JJ)	.	.	.	.	.
=24	=24	=24	=24	=24	=24	=24
(<4E#X\	(16cc#/LL	.	8cc#\	dzie-	.	.
.	16c#/	>	.	.	.	.
.	16g#/	.	8g#/	-cię	.	>
.	16c#/JJ	.	.	.	.	.
4F#\)	16a/LL	.	8a/	Bo-	.	.
.	16A/	.	.	.	.	.
.	16f# 16c#/	.	8f#/	-ga,	.	]
.	16A/JJ)	]	.	.	.	.
!!LO:LB:g=original
=25	=25	=25	=25	=25	=25	=25
*	*	*	*	*v:3	*	*
(<8G#\L	(16e/LL	.	8e/	My	.	.
.	16B/	.	.	.	.	.
8En\J	16g#/	.	8g#/	u-	.	.
.	16B/JJ	.	.	.	.	.
8D#X/L	16b/LL	.	8b/	-tu-	.	.
.	16B/	.	.	.	.	.
8BB/J)	16a 16d#X/	.	8a/	-lim	.	.
.	16B/JJ)	.	.	.	.	.
=26	=26	=26	=26	=26	=26	=26
(<4E\	(16g#/LL	.	(4g#/	cię!	.	.
.	16B/	.	.	.	.	.
.	16e/	.	.	.	.	.
.	16B/JJ	.	.	.	.	.
4Dn\)	16b/LL	<	8b/)	.	.	>
.	16e/	.	.	.	.	.
.	16g#/	.	8r	.	.	]]
.	16e/JJ)	[[	.	.	.	.
=27	=27	=27	=27	=27	=27	=27
2C#/	(16ee/LL	.	8ee\	Pójdź	.	.
.	16e/	.	.	.	.	.
.	16cc# 16a/	.	8cc#\	sie-	.	.
.	16e/JJ	.	.	.	.	.
.	16b/LL	.	8b/	-ro-	.	.
.	16e/	.	.	.	.	.
.	16a/	.	8a/	-to,	.	.
.	16A/JJ)	.	.	.	.	.
=28	=28	=28	=28	=28	=28	=28
2BB/	(16g#/LL	.	8g#/	dzie-	.	.
.	16A/	.	.	.	.	.
.	16f# 16d/	.	8f#/	-cię	.	.
.	16A/JJ	.	.	.	.	.
.	16dd/LL	.	8dd\	Bo-	.	.
.	16d/	.	.	.	.	.
.	16ee 16f#/	.	8cc#\	-ga,	.	.
.	16d/JJ)	.	.	.	.	.
!!LO:PB:g=original
=29	=29	=29	=29	=29	=29	=29
*	*	*	*	*v:3	*	*
2E\	(16b/LL	.	8b/	My	.	.
.	16B/	>	.	.	.	.
.	16f# 16d/	.	8f#/	u-	.	.
.	16B/JJ	.	.	.	.	.
.	16g#/LL	.	8g#/	-tu-	.	.
.	16d/	]	.	.	.	.
.	16cc# 16e/	.	(16cc#\LL	-lim	.	.
.	16bJJ 16d/)	.	16b\JJ)	.	.	.
=30	=30	=30	=30	=30	=30	=30
!	!	!LO:DY:rj	!	!	!	!
[2E [2AA/	(16aLL 16c#/	p	[2a/	cię!	.	.
.	16e/	.	.	.	.	.
.	16A/	.	.	.	.	.
.	16c#/JJ	.	.	.	.	.
.	16d#X/LL	.	.	.	.	.
.	16e/	.	.	.	.	.
.	16A/	.	.	.	.	.
.	16c#/JJ	.	.	.	.	.
=31	=31	=31	=31	=31	=31	=31
2E] 2AA/]	16d#X/LL	.	2a/_	.	.	.
.	16e/	.	.	.	.	.
.	16A/	.	.	.	.	.
.	16c#/JJ	.	.	.	.	.
.	16d#/LL	.	.	.	.	.
.	16e/	.	.	.	.	.
.	16A/	.	.	.	.	.
.	16e/JJ)	.	.	.	.	.
=32	=32	=32	=32	=32	=32	=32
*ped	*	*	*	*	*	*
4E 4AA/	4a 4c#/	.	4a/]	.	.	.
4e 4A\	4aa 4cc#\	.	4r	.	.	.
=33	=33	=33	=33	=33	=33	=33
2e 2A;\	2aa 2cc#;\	.	2r;	.	.	.
==	==	==	==	==	==	==
*-	*-	*-	*-	*-	*-	*-
!!!system-decoration: p1{p2}
!!!RDF**kern: > = above
!!!RDF**kern: < = below
!!!ENC: Andrzej Gręziak
!!!END: 2025-03-04
!!!ENC: Marta Lawrence
!!!END: 2025-03-20
